icon/cg/voicemail-r.svg

<svg viewBox="0 0 24 24" fill="none" xmlns="http://www.w3.org/2000/svg" height="1em" width="1em">
  <path fill-rule="evenodd" clip-rule="evenodd" d="M11.5 12C11.5 12.3506 11.4398 12.6872 11.3293 13H13.6707C13.5602 12.6872 13.5 12.3506 13.5 12C13.5 10.3431 14.8431 9 16.5 9C18.1569 9 19.5 10.3431 19.5 12C19.5 13.6569 18.1569 15 16.5 15H8.5C6.84315 15 5.5 13.6569 5.5 12C5.5 10.3431 6.84315 9 8.5 9C10.1569 9 11.5 10.3431 11.5 12ZM9.5 12C9.5 12.5523 9.05228 13 8.5 13C7.94772 13 7.5 12.5523 7.5 12C7.5 11.4477 7.94772 11 8.5 11C9.05228 11 9.5 11.4477 9.5 12ZM17.5 12C17.5 12.5523 17.0523 13 16.5 13C15.9477 13 15.5 12.5523 15.5 12C15.5 11.4477 15.9477 11 16.5 11C17.0523 11 17.5 11.4477 17.5 12Z" fill="currentColor"/>
  <path fill-rule="evenodd" clip-rule="evenodd" d="M1.5 8C1.5 6.34315 2.84315 5 4.5 5H19.5C21.1569 5 22.5 6.34315 22.5 8V16C22.5 17.6569 21.1569 19 19.5 19H4.5C2.84315 19 1.5 17.6569 1.5 16V8ZM4.5 7H19.5C20.0523 7 20.5 7.44772 20.5 8V16C20.5 16.5523 20.0523 17 19.5 17H4.5C3.94772 17 3.5 16.5523 3.5 16V8C3.5 7.44772 3.94772 7 4.5 7Z" fill="currentColor"/>
</svg>

<svg width="24" height="24" fill="none" xmlns="http://www.w3.org/2000/svg"><path fill-rule="evenodd" clip-rule="evenodd" d="M11.5 12c0 .35-.06.687-.17 1h2.34a3 3 0 1 1 2.83 2h-8a3 3 0 1 1 3-3Zm-2 0a1 1 0 1 1-2 0 1 1 0 0 1 2 0Zm8 0a1 1 0 1 1-2 0 1 1 0 0 1 2 0Z" fill="currentColor"/><path fill-rule="evenodd" clip-rule="evenodd" d="M1.5 8a3 3 0 0 1 3-3h15a3 3 0 0 1 3 3v8a3 3 0 0 1-3 3h-15a3 3 0 0 1-3-3V8Zm3-1h15a1 1 0 0 1 1 1v8a1 1 0 0 1-1 1h-15a1 1 0 0 1-1-1V8a1 1 0 0 1 1-1Z" fill="currentColor"/></svg>
